svg/emoji_u1f99e.svg

<?xml version="1.0" encoding="UTF-8" standalone="no"?>
<!-- Generator: Adobe Illustrator 24.1.2, SVG Export Plug-In . SVG Version: 6.00 Build 0)  -->

<svg
   version="1.1"
   id="Layer_3"
   x="0px"
   y="0px"
   viewBox="0 0 128 128"
   style="enable-background:new 0 0 128 128;"
   xml:space="preserve"
   sodipodi:docname="emoji_u1f99e.svg"
   inkscape:version="1.2.2 (732a01da63, 2022-12-09)"
   xmlns:inkscape="http://www.inkscape.org/namespaces/inkscape"
   xmlns:sodipodi="http://sodipodi.sourceforge.net/DTD/sodipodi-0.dtd"
   xmlns="http://www.w3.org/2000/svg"
   xmlns:svg="http://www.w3.org/2000/svg"><defs
   id="defs35237" /><sodipodi:namedview
   id="namedview35235"
   pagecolor="#ffffff"
   bordercolor="#000000"
   borderopacity="0.25"
   inkscape:showpageshadow="2"
   inkscape:pageopacity="0.0"
   inkscape:pagecheckerboard="0"
   inkscape:deskcolor="#d1d1d1"
   showgrid="false"
   inkscape:zoom="4.2421875"
   inkscape:cx="48.913444"
   inkscape:cy="63.882136"
   inkscape:window-width="1366"
   inkscape:window-height="697"
   inkscape:window-x="-8"
   inkscape:window-y="-8"
   inkscape:window-maximized="1"
   inkscape:current-layer="Layer_3" />
<path
   style="fill:#FF5E59;"
   d="M69.2,69.7l10.98-8l6.34-2.77l6.76-6.19c0,0,6.13-0.14,4.12,6.19c-1.13,3.54-6.79,4.15-6.79,4.15  s-6.93,6.3-10.79,6.41c-2.46,0.07-4.5,0.66-4.5,0.66l0.16,0.57c0,0,11.41,0.33,12.92,0.14c1.5-0.19,8.88-5.5,9.73-5.97  c0.84-0.47,1.96-0.93,2.53,0c0.47,0.75-0.26,1.55-1.1,2.21c-0.84,0.66-9.4,6.13-10.07,6.52c-1.55,0.9-14.18,0.55-14.18,0.55  l0.39,0.76c0,0,11.9,1.21,13.59,2.09c0.56,0.29,6.78,8.14,7.16,8.61c0.38,0.47,0.45,1.42-0.19,1.97c-0.67,0.58-1.5-0.19-2.06-0.66  c-0.56-0.47-5.97-6.44-6.35-6.72s-12.52-2.1-12.52-2.1l0.09,1.22c0,0,10.55,2.69,11.54,3.47c1.09,0.86,4.82,6.42,5.31,7.33  s1.09,3.03,0.11,3.48c-0.75,0.35-2.32-1.41-2.53-1.97c-0.21-0.56-3.94-6.34-4.36-6.55c-0.42-0.21-10.28-2.39-10.28-2.39l0.21,0.99  c0,0,7.88,3.87,8.52,4.79c0.63,0.92,2.89,7.81,2.96,8.38s0.39,2.1-0.35,2.39c-1.16,0.46-1.9-1.37-2.25-2.01  c-0.35-0.63-2.32-6.51-2.75-7.14c-0.42-0.63-7.18-2.96-7.18-2.96l-19.99-0.67c0,0-7.74,4.68-7.88,5.1c-0.14,0.42-1.37,6.86-1.55,7.6  c-0.11,0.48-0.39,1.51-1.41,1.48c-1.3-0.04-1.06-1.13-0.99-2.32c0.07-1.2,1.2-8.27,1.97-9.08c0.24-0.25,7.53-5.84,8.87-5.84  c1.34,0,0.92-0.21,0.92-0.21l-0.35-0.95c0,0-5.42,2.32-6.83,2.89c-1.41,0.56-6.09,2.43-6.37,2.64C40.45,88,37.4,94.2,37.1,94.61  c-0.35,0.49-1.16,1.06-1.9,0.77c-0.64-0.24-0.7-1.13-0.28-2.18c0.42-1.06,2.99-8.02,3.34-8.31c0.35-0.28,10.03-3.87,10.8-4.22  c0.77-0.35,4.72-1.62,4.72-1.62l-0.56-0.67c0,0-8.09,0.74-9.29,0.95c-1.2,0.21-5.46,0.95-5.74,1.09c-0.28,0.14-3.06,5.1-3.41,5.67  c-0.35,0.56-2.11,2.18-2.82,1.69c-0.7-0.49-0.49-1.83-0.21-2.53c0.28-0.7,3.8-7.18,4.5-7.74c0.7-0.56,4.58-1.2,6.97-1.55  s9.26-1.13,9.26-1.13l-0.14-0.63c0,0-7,0.11-8.9,0.14c-1.55,0.03-5.27,0.18-6.05-0.14c-1.3-0.53-5.88-3.45-6.83-4.29  c-0.42-0.38-3.63-2.43-2.53-3.94c0.87-1.21,3.17,0.56,3.87,0.99c0.7,0.42,5.53,3.48,6.79,3.77c1.27,0.28,12.85,0.25,12.85,0.25  l-0.21-1.83c0,0-3.94,1.49-8.17-0.16c-4.43-1.73-4.65-3.11-4.65-3.11s-3.52,0.11-4.72-2.96c-0.71-1.82-1.2-5.95-1.2-5.95l8.24,0.21  l1.06,4.29l18.93,6.48L69.2,69.7z"
   id="path35200" />
<path
   style="fill:#FB1B1D;"
   d="M56.81,104.16c-0.69,1.21-4.55,2.86-7.98,6.52c-2.99,3.19-4.22,8.35-0.56,11.26  c3.66,2.91,6.95,1.41,7.88,0.56c0.94-0.84,3-2.72,3-2.72l5.91,1.88l6.19-1.69c0,0,1.97,3,4.69,3.47c2.72,0.47,8.82-0.75,8.35-7.13  c-0.47-6.38-10.19-10.63-10.61-11.59c-0.75-1.74,1.22-13.19,1.69-16.1c0.47-2.91,2.14-14.1,2.16-16.71c0.03-3-0.19-5.26-0.19-5.26  s3.2-3.73,5.21-4.72c2.01-0.99,6.37-1.51,6.37-1.51s0.32-3.7,2.89-5.14c2.57-1.44,5.84-0.56,5.84-0.56s4.12,0.25,7.6-4.54  c3.48-4.79,3.1-18.34,0.63-24.07s-4.14-11.22-10.49-18.06c-3.52-3.79-4.93-4.01-6.69-2.43s2.53,8.3,4.02,13.16  c1.37,4.46,1.97,6.29,2.16,9.95c0.17,3.34,0.26,5.22-0.76,5.33c-1.02,0.11-1.29-1.11-1.68-4.95c-0.39-3.84-2.55-8.94-3.6-10.46  c-1.02-1.48-2.75-1.27-3.63,0.07c-0.88,1.34-0.49,8.66,0.18,12.95s1.08,9.35,2.15,12.88c1.48,4.89,3.94,7.46,3.94,7.46  s-1.94,0.07-3.03,1.55c-1.09,1.48-1.76,3.52-1.76,3.52s-2.11,1.41-3.1,2.04c-0.99,0.63-6.29,3.47-6.29,3.47s-2.49-6.87-4.58-9.55  c-2.09-2.67-8.17-10.7-8.8-10.72c-0.77-0.02-6.64,9.13-8.19,11.19c-1.55,2.06-3.26,5.28-3.68,6.66s-0.66,2.65-0.66,2.65  s-3.21-1.15-4.74-1.38c-1.53-0.23-4.11-0.75-4.11-0.75s0.19-1.74-0.84-3.38c-0.65-1.04-1.88-2.39-1.88-2.39s1.67-1.27,2.06-3.73  s-1.17-12.74-1.74-15.84c-0.56-3.1-0.75-12.06-1.64-13.7s-3.47-0.84-4.69,1.97c-0.76,1.76-1.41,5.91-1.27,8.82  c0.14,2.91,1.13,5.49-0.47,5.58s-1.92-6.38-1.5-10.7c0.42-4.32,3.71-13.56,3.66-15.25c-0.05-1.69-1.92-3.19-5.02-0.23  s-7.74,7.84-9.1,17.83c-0.96,7.08-0.94,12.72,0.23,16.85c1.17,4.13,2.96,9.15,8.68,11.83c5.73,2.67,9.08-1.91,10.93,1.17  c0.84,1.41,0.56,3.66,0.56,3.66s2.14-0.45,6.38,0.99c3.61,1.22,3.99,2.58,3.99,2.58s0.01,1.16,0.28,4.97  c0.33,4.65,3.1,16.52,3.33,17.46c0.23,0.94,1.87,9.97,2.16,11.4C57.05,102.24,57.19,103.51,56.81,104.16z"
   id="path35202" />
<path
   style="fill:#FB1B1D;"
   d="M44,23.24c1.9,0.36,1.9-1.47,2.04-3.24c0.28-3.59,2.11-7.53,5.91-7.6c3.8-0.07,5.28,6.12,5.35,13.8  s0.92,23.86,0.92,23.86l2.89-1.2c0,0-0.49-21.26-0.7-24.78S60.05,8.81,52.17,8.67s-8.97,9.01-9.01,9.92  C43.09,20.28,42.52,22.96,44,23.24z"
   id="path35204" />
<path
   style="fill:#FB1B1D;"
   d="M66.46,47.24c0,0,0.35-22.67,0.49-26.61c0.14-3.94,0.21-12.49,7.6-12.32  c4.97,0.12,5.98,2.58,6.62,6.55c0.35,2.18,0.16,4.13,0.07,5.07c-0.07,0.77-0.38,1.85-1.55,1.83c-1.27-0.03-1.48-1.13-1.48-2.32  s0.21-7.81-3.31-7.88c-3.52-0.07-4.72,3.73-4.79,9.01s-0.56,28.58-0.56,28.58L66.46,47.24z"
   id="path35206" />
<path
   style="fill:#FF5F00;"
   d="M55.97,107.71c0,0-3.03,2.6-1.34,8.02c1.15,3.7,3.8,7.11,10,7.39s10.28-3.17,11.68-7.95  c1.04-3.53-0.14-6.76-0.77-7.32c-0.63-0.56-2.44,5.42-3.5,7.32s-2.91,4.93-7.13,4.72c-3.87-0.19-5.88-3.83-6.41-5.28  C57.31,111.3,56.81,107.71,55.97,107.71z"
   id="path35208" />
<path
   style="fill:#FF5F00;"
   d="M58.78,106.37c0,0,2.39-0.99,6.34-1.06c3.94-0.07,6.83,0.99,6.83,0.99s-1.55,10.49-6.55,10.49  S58.78,106.37,58.78,106.37z"
   id="path35210" />
<path
   style="fill:#FF5F00;"
   d="M56.86,101.44c0,0,0.05,1.03,0.07,1.53c0.02,0.49-0.12,1.2-0.12,1.2s3.87-1.03,8.59-0.96  s8.31,1.53,8.31,1.53s-0.2-0.92-0.19-1.45c0.01-0.54,0.02-1.27,0.02-1.27s-3.36-1.69-8.21-1.62  C60.47,100.46,56.86,101.44,56.86,101.44z"
   id="path35212" />
<path
   style="fill:#FF5F00;"
   d="M55.19,92.6c0,0,3.8-1.5,9.92-1.57s9.69,1.34,9.69,1.34l-1.03,7.6c0,0-3.24-1.62-8.8-1.62  s-8.45,1.36-8.45,1.36L55.19,92.6z"
   id="path35214" />

<path
   style="fill:#FE9004;"
   d="M54.84,90.67c0,0,5.7-1.55,9.92-1.55c4.22,0,10.35,1.48,10.35,1.48s0.45-2.72,0.87-5.33  c0.42-2.6,0.77-6.1,0.77-6.1s-5.51,6.62-12.13,6.34c-6.62-0.28-12.18-6.03-12.18-6.03s0.63,3.71,1.24,6.24  C54.19,87.79,54.84,90.67,54.84,90.67z"
   id="path35218" />


<ellipse
   transform="matrix(0.9114 -0.4115 0.4115 0.9114 -16.1574 33.2374)"
   style="fill:#2E2F2D;"
   cx="69.11"
   cy="54.14"
   rx="2.43"
   ry="2.46"
   id="ellipse35224" />
<ellipse
   transform="matrix(0.4301 -0.9028 0.9028 0.4301 -14.3747 84.6299)"
   style="fill:#2E2F2D;"
   cx="59.85"
   cy="53.7"
   rx="2.6"
   ry="2.32"
   id="ellipse35226" />

<path
   style="fill:#A42615;"
   d="M92.43,35.98c1.45-0.31,4.01-0.56,3.87-2.32c-0.14-1.76-2.89-1.06-4.22-0.92  c-1.34,0.14-3.38,0.7-3.31,2.18S91.45,36.19,92.43,35.98z"
   id="path35230" />
<path
   style="fill:#A42615;"
   d="M33.3,39.78c0.92-0.05,3.8,0.42,3.73-1.55s-3.73-1.55-4.36-1.55c-0.63,0-2.75,0.35-2.75,1.76  S31.9,39.85,33.3,39.78z"
   id="path35232" />
</svg>

<?xml version="1.0" encoding="UTF-8" standalone="no"?>
<!DOCTYPE svg PUBLIC "-//W3C//DTD SVG 1.1//EN" "http://www.w3.org/Graphics/SVG/1.1/DTD/svg11.dtd">
<svg width="100%" height="100%" viewBox="0 0 128 128" version="1.1" xmlns="http://www.w3.org/2000/svg" xmlns:xlink="http://www.w3.org/1999/xlink" xml:space="preserve" xmlns:serif="http://www.serif.com/" style="fill-rule:evenodd;clip-rule:evenodd;stroke-linejoin:round;stroke-miterlimit:2;">
    <path id="path35200" d="M69.2,69.7L80.18,61.7L86.52,58.93L93.28,52.74C93.28,52.74 99.41,52.6 97.4,58.93C96.27,62.47 90.61,63.08 90.61,63.08C90.61,63.08 83.68,69.38 79.82,69.49C77.36,69.56 75.32,70.15 75.32,70.15L75.48,70.72C75.48,70.72 86.89,71.05 88.4,70.86C89.9,70.67 97.28,65.36 98.13,64.89C98.97,64.42 100.09,63.96 100.66,64.89C101.13,65.64 100.4,66.44 99.56,67.1C98.72,67.76 90.16,73.23 89.49,73.62C87.94,74.52 75.31,74.17 75.31,74.17L75.7,74.93C75.7,74.93 87.6,76.14 89.29,77.02C89.85,77.31 96.07,85.16 96.45,85.63C96.83,86.1 96.9,87.05 96.26,87.6C95.59,88.18 94.76,87.41 94.2,86.94C93.64,86.47 88.23,80.5 87.85,80.22C87.47,79.94 75.33,78.12 75.33,78.12L75.42,79.34C75.42,79.34 85.97,82.03 86.96,82.81C88.05,83.67 91.78,89.23 92.27,90.14C92.76,91.05 93.36,93.17 92.38,93.62C91.63,93.97 90.06,92.21 89.85,91.65C89.64,91.09 85.91,85.31 85.49,85.1C85.07,84.89 75.21,82.71 75.21,82.71L75.42,83.7C75.42,83.7 83.3,87.57 83.94,88.49C84.57,89.41 86.83,96.3 86.9,96.87C86.97,97.44 87.29,98.97 86.55,99.26C85.39,99.72 84.65,97.89 84.3,97.25C83.95,96.62 81.98,90.74 81.55,90.11C81.13,89.48 74.37,87.15 74.37,87.15L54.38,86.48C54.38,86.48 46.64,91.16 46.5,91.58C46.36,92 45.13,98.44 44.95,99.18C44.84,99.66 44.56,100.69 43.54,100.66C42.24,100.62 42.48,99.53 42.55,98.34C42.62,97.14 43.75,90.07 44.52,89.26C44.76,89.01 52.05,83.42 53.39,83.42C54.73,83.42 54.31,83.21 54.31,83.21L53.96,82.26C53.96,82.26 48.54,84.58 47.13,85.15C45.72,85.71 41.04,87.58 40.76,87.79C40.45,88 37.4,94.2 37.1,94.61C36.75,95.1 35.94,95.67 35.2,95.38C34.56,95.14 34.5,94.25 34.92,93.2C35.34,92.14 37.91,85.18 38.26,84.89C38.61,84.61 48.29,81.02 49.06,80.67C49.83,80.32 53.78,79.05 53.78,79.05L53.22,78.38C53.22,78.38 45.13,79.12 43.93,79.33C42.73,79.54 38.47,80.28 38.19,80.42C37.91,80.56 35.13,85.52 34.78,86.09C34.43,86.65 32.67,88.27 31.96,87.78C31.26,87.29 31.47,85.95 31.75,85.25C32.03,84.55 35.55,78.07 36.25,77.51C36.95,76.95 40.83,76.31 43.22,75.96C45.61,75.61 52.48,74.83 52.48,74.83L52.34,74.2C52.34,74.2 45.34,74.31 43.44,74.34C41.89,74.37 38.17,74.52 37.39,74.2C36.09,73.67 31.51,70.75 30.56,69.91C30.14,69.53 26.93,67.48 28.03,65.97C28.9,64.76 31.2,66.53 31.9,66.96C32.6,67.38 37.43,70.44 38.69,70.73C39.96,71.01 51.54,70.98 51.54,70.98L51.33,69.15C51.33,69.15 47.39,70.64 43.16,68.99C38.73,67.26 38.51,65.88 38.51,65.88C38.51,65.88 34.99,65.99 33.79,62.92C33.08,61.1 32.59,56.97 32.59,56.97L40.83,57.18L41.89,61.47L60.82,67.95L69.2,69.7Z" style="fill:rgb(229,115,115);fill-rule:nonzero;"/>
    <path id="path35202" d="M56.81,104.16C56.12,105.37 52.26,107.02 48.83,110.68C45.84,113.87 44.61,119.03 48.27,121.94C51.93,124.85 55.22,123.35 56.15,122.5C57.09,121.66 59.15,119.78 59.15,119.78L65.06,121.66L71.25,119.97C71.25,119.97 73.22,122.97 75.94,123.44C78.66,123.91 84.76,122.69 84.29,116.31C83.82,109.93 74.1,105.68 73.68,104.72C72.93,102.98 74.9,91.53 75.37,88.62C75.84,85.71 77.51,74.52 77.53,71.91C77.56,68.91 77.34,66.65 77.34,66.65C77.34,66.65 80.54,62.92 82.55,61.93C84.56,60.94 88.92,60.42 88.92,60.42C88.92,60.42 89.24,56.72 91.81,55.28C94.38,53.84 97.65,54.72 97.65,54.72C97.65,54.72 101.77,54.97 105.25,50.18C108.73,45.39 108.35,31.84 105.88,26.11C103.41,20.38 101.74,14.89 95.39,8.05C91.87,4.26 90.46,4.04 88.7,5.62C86.94,7.2 91.23,13.92 92.72,18.78C94.09,23.24 94.69,25.07 94.88,28.73C95.05,32.07 95.14,33.95 94.12,34.06C93.1,34.17 92.83,32.95 92.44,29.11C92.05,25.27 89.89,20.17 88.84,18.65C87.82,17.17 86.09,17.38 85.21,18.72C84.33,20.06 84.72,27.38 85.39,31.67C86.06,35.96 86.47,41.02 87.54,44.55C89.02,49.44 91.48,52.01 91.48,52.01C91.48,52.01 89.54,52.08 88.45,53.56C87.36,55.04 86.69,57.08 86.69,57.08C86.69,57.08 84.58,58.49 83.59,59.12C82.6,59.75 77.3,62.59 77.3,62.59C77.3,62.59 74.81,55.72 72.72,53.04C70.63,50.37 64.55,42.34 63.92,42.32C63.15,42.3 57.28,51.45 55.73,53.51C54.18,55.57 52.47,58.79 52.05,60.17C51.63,61.55 51.39,62.82 51.39,62.82C51.39,62.82 48.18,61.67 46.65,61.44C45.12,61.21 42.54,60.69 42.54,60.69C42.54,60.69 42.73,58.95 41.7,57.31C41.05,56.27 39.82,54.92 39.82,54.92C39.82,54.92 41.49,53.65 41.88,51.19C42.27,48.73 40.71,38.45 40.14,35.35C39.58,32.25 39.39,23.29 38.5,21.65C37.61,20.01 35.03,20.81 33.81,23.62C33.05,25.38 32.4,29.53 32.54,32.44C32.68,35.35 33.67,37.93 32.07,38.02C30.47,38.11 30.15,31.64 30.57,27.32C30.99,23 34.28,13.76 34.23,12.07C34.18,10.38 32.31,8.88 29.21,11.84C26.11,14.8 21.47,19.68 20.11,29.67C19.15,36.75 19.17,42.39 20.34,46.52C21.51,50.65 23.3,55.67 29.02,58.35C34.75,61.02 38.1,56.44 39.95,59.52C40.79,60.93 40.51,63.18 40.51,63.18C40.51,63.18 42.65,62.73 46.89,64.17C50.5,65.39 50.88,66.75 50.88,66.75C50.88,66.75 50.89,67.91 51.16,71.72C51.49,76.37 54.26,88.24 54.49,89.18C54.72,90.12 56.36,99.15 56.65,100.58C57.05,102.24 57.19,103.51 56.81,104.16Z" style="fill:rgb(211,48,44);fill-rule:nonzero;"/>
    <path id="path35204" d="M44,23.24C45.9,23.6 45.9,21.77 46.04,20C46.32,16.41 48.15,12.47 51.95,12.4C55.75,12.33 57.23,18.52 57.3,26.2C57.37,33.88 58.22,50.06 58.22,50.06L61.11,48.86C61.11,48.86 60.62,27.6 60.41,24.08C60.2,20.56 60.05,8.81 52.17,8.67C44.29,8.53 43.2,17.68 43.16,18.59C43.09,20.28 42.52,22.96 44,23.24Z" style="fill:rgb(211,48,44);fill-rule:nonzero;"/>
    <path id="path35206" d="M66.46,47.24C66.46,47.24 66.81,24.57 66.95,20.63C67.09,16.69 67.16,8.14 74.55,8.31C79.52,8.43 80.53,10.89 81.17,14.86C81.52,17.04 81.33,18.99 81.24,19.93C81.17,20.7 80.86,21.78 79.69,21.76C78.42,21.73 78.21,20.63 78.21,19.44C78.21,18.25 78.42,11.63 74.9,11.56C71.38,11.49 70.18,15.29 70.11,20.57C70.04,25.85 69.55,49.15 69.55,49.15L66.46,47.24Z" style="fill:rgb(211,48,44);fill-rule:nonzero;"/>
    <path id="path35208" d="M55.97,107.71C55.97,107.71 52.94,110.31 54.63,115.73C55.78,119.43 58.43,122.84 64.63,123.12C70.83,123.4 74.91,119.95 76.31,115.17C77.35,111.64 76.17,108.41 75.54,107.85C74.91,107.29 73.1,113.27 72.04,115.17C70.98,117.07 69.13,120.1 64.91,119.89C61.04,119.7 59.03,116.06 58.5,114.61C57.31,111.3 56.81,107.71 55.97,107.71Z" style="fill:rgb(231,102,43);fill-rule:nonzero;"/>
    <path id="path35210" d="M58.78,106.37C58.78,106.37 61.17,105.38 65.12,105.31C69.06,105.24 71.95,106.3 71.95,106.3C71.95,106.3 70.4,116.79 65.4,116.79C60.4,116.79 58.78,106.37 58.78,106.37Z" style="fill:rgb(231,102,43);fill-rule:nonzero;"/>
    <path id="path35212" d="M56.86,101.44C56.86,101.44 56.91,102.47 56.93,102.97C56.95,103.46 56.81,104.17 56.81,104.17C56.81,104.17 60.68,103.14 65.4,103.21C70.12,103.28 73.71,104.74 73.71,104.74C73.71,104.74 73.51,103.82 73.52,103.29C73.53,102.75 73.54,102.02 73.54,102.02C73.54,102.02 70.18,100.33 65.33,100.4C60.47,100.46 56.86,101.44 56.86,101.44Z" style="fill:rgb(231,102,43);fill-rule:nonzero;"/>
    <path id="path35214" d="M55.19,92.6C55.19,92.6 58.99,91.1 65.11,91.03C71.23,90.96 74.8,92.37 74.8,92.37L73.77,99.97C73.77,99.97 70.53,98.35 64.97,98.35C59.41,98.35 56.52,99.71 56.52,99.71L55.19,92.6Z" style="fill:rgb(231,102,43);fill-rule:nonzero;"/>
    <path id="path35218" d="M54.84,90.67C54.84,90.67 60.54,89.12 64.76,89.12C68.98,89.12 75.11,90.6 75.11,90.6C75.11,90.6 75.56,87.88 75.98,85.27C76.4,82.67 76.75,79.17 76.75,79.17C76.75,79.17 71.24,85.79 64.62,85.51C58,85.23 52.44,79.48 52.44,79.48C52.44,79.48 53.07,83.19 53.68,85.72C54.19,87.79 54.84,90.67 54.84,90.67Z" style="fill:rgb(237,108,48);fill-rule:nonzero;"/>
    <g id="ellipse35224" transform="matrix(0.9114,-0.4115,0.4115,0.9114,-16.1574,33.2374)">
        <ellipse cx="69.11" cy="54.14" rx="2.43" ry="2.46" style="fill:rgb(33,33,33);"/>
    </g>
    <g id="ellipse35226" transform="matrix(0.4301,-0.9028,0.9028,0.4301,-14.3747,84.6299)">
        <ellipse cx="59.85" cy="53.7" rx="2.6" ry="2.32" style="fill:rgb(33,33,33);"/>
    </g>
    <path id="path35230" d="M92.43,35.98C93.88,35.67 96.44,35.42 96.3,33.66C96.16,31.9 93.41,32.6 92.08,32.74C90.74,32.88 88.7,33.44 88.77,34.92C88.84,36.4 91.45,36.19 92.43,35.98Z" style="fill:rgb(155,24,24);fill-rule:nonzero;"/>
    <path id="path35232" d="M33.3,39.78C34.22,39.73 37.1,40.2 37.03,38.23C36.96,36.26 33.3,36.68 32.67,36.68C32.04,36.68 29.92,37.03 29.92,38.44C29.92,39.85 31.9,39.85 33.3,39.78Z" style="fill:rgb(155,24,24);fill-rule:nonzero;"/>
</svg>
